images/dest/icon--tokens-3.svg

<svg width="121" height="121" viewBox="0 0 121 121" fill="none" xmlns="http://www.w3.org/2000/svg">
<circle cx="39.1939" cy="39.1939" r="28.9755" transform="rotate(28.033 39.1939 39.1939)" fill="url(#paint0_linear)"/>
<circle cx="39.1939" cy="39.1939" r="28.9755" transform="rotate(28.033 39.1939 39.1939)" fill="url(#paint1_linear)"/>
<circle cx="39.1938" cy="77.8283" r="28.9755" transform="rotate(-70.9549 39.1938 77.8283)" fill="url(#paint2_linear)"/>
<circle cx="39.1938" cy="77.8283" r="28.9755" transform="rotate(-70.9549 39.1938 77.8283)" fill="url(#paint3_linear)"/>
<circle cx="79.2835" cy="79.2835" r="28.9755" transform="rotate(-140.807 79.2835 79.2835)" fill="url(#paint4_linear)"/>
<circle cx="79.2835" cy="79.2835" r="28.9755" transform="rotate(-140.807 79.2835 79.2835)" fill="url(#paint5_linear)"/>
<circle cx="76.8112" cy="38.1777" r="28.9755" transform="rotate(112.018 76.8112 38.1777)" fill="url(#paint6_linear)"/>
<circle cx="76.8112" cy="38.1777" r="28.9755" transform="rotate(112.018 76.8112 38.1777)" fill="url(#paint7_linear)"/>
<path d="M12 64.876V45.5372H16.7292V64.5868C16.7292 66.3774 17.2501 67.7961 18.2918 68.843C19.361 69.8623 20.8963 70.3719 22.8976 70.3719C24.899 70.3719 26.4205 69.8623 27.4623 68.843C28.5315 67.7961 29.0661 66.3774 29.0661 64.5868V45.5372H33.7953V64.876C33.7953 67.9339 32.7809 70.3994 30.7521 72.2727C28.7508 74.0909 26.1326 75 22.8976 75C19.6626 75 17.0444 74.0909 15.0431 72.2727C13.0144 70.3994 12 67.9339 12 64.876Z" fill="white"/>
<path d="M46.9659 75C44.1969 75 41.8392 74.3802 39.8927 73.1405C37.9736 71.8733 36.6303 70.124 35.8627 67.8926L39.9338 65.4959C41.0853 68.7466 43.4704 70.3719 47.0893 70.3719C48.8439 70.3719 50.1735 70.0275 51.0782 69.3388C51.9829 68.6501 52.4353 67.7273 52.4353 66.5702C52.4353 65.4132 51.9555 64.5179 50.996 63.8843C50.0364 63.2507 48.3367 62.562 45.8967 61.8182C43.4019 61.0744 41.3869 60.1928 39.8516 59.1736C37.9874 57.8512 37.0552 55.9091 37.0552 53.3471C37.0552 50.7851 37.9599 48.7603 39.7694 47.2727C41.5514 45.7576 43.7309 45 46.3079 45C48.5834 45 50.5847 45.5647 52.3119 46.6942C54.0665 47.7961 55.4098 49.3526 56.342 51.3636L52.353 53.6777C51.1468 50.978 49.1317 49.6281 46.3079 49.6281C44.9372 49.6281 43.8405 49.9587 43.0181 50.6198C42.1956 51.2534 41.7844 52.1212 41.7844 53.2231C41.7844 54.2975 42.1956 55.1515 43.0181 55.7851C43.8405 56.3912 45.3621 57.0386 47.5827 57.7273C48.9535 58.1956 49.7486 58.4711 49.9679 58.5537C50.3243 58.6639 51.0371 58.9394 52.1063 59.3802C52.9836 59.7383 53.6827 60.124 54.2036 60.5372C56.342 62.2176 57.3289 64.2011 57.1644 66.4876C57.1644 69.1047 56.2186 71.1846 54.3269 72.7273C52.4901 74.2424 50.0364 75 46.9659 75Z" fill="white"/>
<path d="M59.1875 45.5372H70.4964C74.4442 45.5372 77.7203 46.9284 80.3248 49.7107C82.9567 52.4931 84.2726 55.9229 84.2726 60C84.2726 64.0496 82.9567 67.4793 80.3248 70.2893C77.7203 73.0716 74.4442 74.4628 70.4964 74.4628H59.1875V45.5372ZM63.9167 69.9174H70.4964C73.2105 69.9174 75.4174 68.9807 77.1172 67.1074C78.8444 65.2342 79.7079 62.865 79.7079 60C79.7079 57.135 78.8444 54.7658 77.1172 52.8926C75.4174 51.0193 73.2105 50.0826 70.4964 50.0826H63.9167V69.9174Z" fill="white"/>
<path d="M86.2047 64.876V45.5372H90.9339V64.5868C90.9339 66.3774 91.4548 67.7961 92.4966 68.843C93.5658 69.8623 95.101 70.3719 97.1024 70.3719C99.1037 70.3719 100.625 69.8623 101.667 68.843C102.736 67.7961 103.271 66.3774 103.271 64.5868V45.5372H108V64.876C108 67.9339 106.986 70.3994 104.957 72.2727C102.956 74.0909 100.337 75 97.1024 75C93.8674 75 91.2492 74.0909 89.2479 72.2727C87.2191 70.3994 86.2047 67.9339 86.2047 64.876Z" fill="white"/>
<defs>
<linearGradient id="paint0_linear" x1="40.4495" y1="2.10843" x2="40.963" y2="82.3401" gradientUnits="userSpaceOnUse">
<stop stop-color="#D9C88B"/>
<stop offset="1" stop-color="#AA9036" stop-opacity="0"/>
</linearGradient>
<linearGradient id="paint1_linear" x1="40.4495" y1="2.10843" x2="40.963" y2="82.3401" gradientUnits="userSpaceOnUse">
<stop offset="0.0904391" stop-color="#DDAE09"/>
<stop offset="0.127005" stop-color="#FFF5D0"/>
<stop offset="0.271574" stop-color="#D1BA6A"/>
<stop offset="0.510797" stop-color="#B9A049"/>
<stop offset="0.706074" stop-color="#AB9135"/>
<stop offset="0.823361" stop-color="#AD9D61"/>
</linearGradient>
<linearGradient id="paint2_linear" x1="40.4494" y1="40.7429" x2="40.9629" y2="120.975" gradientUnits="userSpaceOnUse">
<stop stop-color="#D9C88B"/>
<stop offset="1" stop-color="#AA9036" stop-opacity="0"/>
</linearGradient>
<linearGradient id="paint3_linear" x1="40.4494" y1="40.7429" x2="40.9629" y2="120.975" gradientUnits="userSpaceOnUse">
<stop offset="0.0904391" stop-color="#DDAE09"/>
<stop offset="0.127005" stop-color="#FFF5D0"/>
<stop offset="0.271574" stop-color="#D1BA6A"/>
<stop offset="0.510797" stop-color="#B9A049"/>
<stop offset="0.706074" stop-color="#AB9135"/>
<stop offset="0.823361" stop-color="#AD9D61"/>
</linearGradient>
<linearGradient id="paint4_linear" x1="80.5392" y1="42.1981" x2="81.0526" y2="122.43" gradientUnits="userSpaceOnUse">
<stop stop-color="#D9C88B"/>
<stop offset="1" stop-color="#AA9036" stop-opacity="0"/>
</linearGradient>
<linearGradient id="paint5_linear" x1="80.5392" y1="42.1981" x2="81.0526" y2="122.43" gradientUnits="userSpaceOnUse">
<stop offset="0.0904391" stop-color="#DDAE09"/>
<stop offset="0.127005" stop-color="#FFF5D0"/>
<stop offset="0.271574" stop-color="#D1BA6A"/>
<stop offset="0.510797" stop-color="#B9A049"/>
<stop offset="0.706074" stop-color="#AB9135"/>
<stop offset="0.823361" stop-color="#AD9D61"/>
</linearGradient>
<linearGradient id="paint6_linear" x1="78.0668" y1="1.09228" x2="78.5803" y2="81.324" gradientUnits="userSpaceOnUse">
<stop stop-color="#D9C88B"/>
<stop offset="1" stop-color="#AA9036" stop-opacity="0"/>
</linearGradient>
<linearGradient id="paint7_linear" x1="78.0668" y1="1.09228" x2="78.5803" y2="81.324" gradientUnits="userSpaceOnUse">
<stop offset="0.0904391" stop-color="#DDAE09"/>
<stop offset="0.127005" stop-color="#FFF5D0"/>
<stop offset="0.271574" stop-color="#D1BA6A"/>
<stop offset="0.510797" stop-color="#B9A049"/>
<stop offset="0.706074" stop-color="#AB9135"/>
<stop offset="0.823361" stop-color="#AD9D61"/>
</linearGradient>
</defs>
</svg>

<svg width="121" height="121" fill="none" xmlns="http://www.w3.org/2000/svg"><circle cx="39.194" cy="39.194" r="28.976" transform="rotate(28.033 39.194 39.194)" fill="url(#paint0_linear)"/><circle cx="39.194" cy="77.828" r="28.976" transform="rotate(-70.955 39.194 77.828)" fill="url(#paint1_linear)"/><circle cx="79.283" cy="79.284" r="28.976" transform="rotate(-140.807 79.283 79.284)" fill="url(#paint2_linear)"/><circle cx="76.811" cy="38.177" r="28.976" transform="rotate(112.018 76.811 38.177)" fill="url(#paint3_linear)"/><path d="M12 64.876V45.537h4.73v19.05c0 1.79.52 3.21 1.562 4.256 1.069 1.02 2.604 1.529 4.606 1.529 2.001 0 3.523-.51 4.564-1.529 1.07-1.047 1.604-2.466 1.604-4.256v-19.05h4.73v19.339c0 3.058-1.015 5.523-3.044 7.397C28.751 74.09 26.132 75 22.898 75c-3.235 0-5.854-.91-7.855-2.727C13.014 70.399 12 67.933 12 64.876zM46.966 75c-2.77 0-5.127-.62-7.073-1.86-1.92-1.267-3.263-3.016-4.03-5.247l4.07-2.397c1.152 3.25 3.537 4.876 7.156 4.876 1.755 0 3.084-.344 3.99-1.033.904-.689 1.356-1.612 1.356-2.769s-.48-2.052-1.439-2.686c-.96-.633-2.66-1.322-5.1-2.066-2.494-.744-4.51-1.625-6.044-2.644-1.865-1.323-2.797-3.265-2.797-5.827s.905-4.587 2.714-6.074C41.551 45.758 43.731 45 46.308 45c2.275 0 4.277.565 6.004 1.694 1.755 1.102 3.098 2.659 4.03 4.67l-3.989 2.314c-1.206-2.7-3.221-4.05-6.045-4.05-1.37 0-2.468.33-3.29.992-.822.633-1.234 1.501-1.234 2.603 0 1.075.412 1.928 1.234 2.562.822.606 2.344 1.254 4.565 1.942 1.37.469 2.166.744 2.385.827.356.11 1.07.385 2.138.826.878.358 1.577.744 2.098 1.157 2.138 1.68 3.125 3.664 2.96 5.95 0 2.618-.945 4.698-2.837 6.24C52.49 74.242 50.037 75 46.966 75zm12.222-29.463h11.308c3.948 0 7.224 1.391 9.829 4.174 2.632 2.782 3.948 6.212 3.948 10.289 0 4.05-1.316 7.48-3.948 10.29-2.605 2.782-5.88 4.173-9.829 4.173H59.188V45.537zm4.729 24.38h6.58c2.713 0 4.92-.936 6.62-2.81 1.727-1.873 2.59-4.242 2.59-7.107s-.863-5.234-2.59-7.107c-1.7-1.874-3.907-2.81-6.62-2.81h-6.58v19.834zm22.288-5.041V45.537h4.729v19.05c0 1.79.52 3.21 1.563 4.256 1.069 1.02 2.604 1.529 4.605 1.529 2.002 0 3.523-.51 4.565-1.529 1.069-1.047 1.604-2.466 1.604-4.256v-19.05H108v19.339c0 3.058-1.014 5.523-3.043 7.397-2.001 1.818-4.62 2.727-7.855 2.727-3.235 0-5.853-.91-7.854-2.727-2.029-1.874-3.043-4.34-3.043-7.397z" fill="#fff"/><defs><linearGradient id="paint0_linear" x1="39.194" y1="10.218" x2="39.194" y2="68.169" gradientUnits="userSpaceOnUse"><stop stop-color="#876AB7"/><stop offset="1" stop-color="#543784" stop-opacity="0"/></linearGradient><linearGradient id="paint1_linear" x1="39.194" y1="48.852" x2="39.194" y2="106.803" gradientUnits="userSpaceOnUse"><stop stop-color="#876AB7"/><stop offset="1" stop-color="#543784" stop-opacity="0"/></linearGradient><linearGradient id="paint2_linear" x1="79.283" y1="50.308" x2="79.283" y2="108.259" gradientUnits="userSpaceOnUse"><stop stop-color="#876AB7"/><stop offset="1" stop-color="#543784" stop-opacity="0"/></linearGradient><linearGradient id="paint3_linear" x1="76.811" y1="9.202" x2="76.811" y2="67.153" gradientUnits="userSpaceOnUse"><stop stop-color="#876AB7"/><stop offset="1" stop-color="#543784" stop-opacity="0"/></linearGradient></defs></svg>
